X: 1
T: Saddle The Pony
R: jig
M: 6/8
L: 1/8
K: Gmaj
D|GBA G2B|def gdB|GBA G2B|AFD AFD|
GBA G2B|def gfg|efe dBA|BGG G2:||
d|efe edB|def gfg|efe edB|dBA ABd|
efe edB|def gfg|efe dBA|BGG G2:||

( I dont know if this is the right tune! )
